icons/StateMachine.svg

<?xml version="1.0" encoding="UTF-8" standalone="no"?>
<svg
   width="16"
   height="16"
   version="1.1"
   id="svg1"
   xmlns="http://www.w3.org/2000/svg"
   xmlns:svg="http://www.w3.org/2000/svg">
  <defs
     id="defs1" />
  <path
     id="path6"
     style="fill:#e0e0e0;fill-opacity:1;stroke:none;stroke-width:2;stroke-linecap:square;stroke-miterlimit:5;stroke-dasharray:none;stroke-opacity:1;paint-order:markers fill stroke"
     d="M 8,2 A 6,6 0 0 0 2,8 6,6 0 0 0 8,14 6,6 0 0 0 14,8 6,6 0 0 0 8,2 Z m 0,2 c 0.3496284,7.85e-4 0.6976489,0.047407 1.0351562,0.1386719 L 8.7773438,5.1035156 A 3,3 0 0 1 9.5,5.4042969 L 10,4.5371094 C 10.302572,4.7116318 10.580983,4.9250372 10.828125,5.171875 11.074963,5.4190165 11.288368,5.6974283 11.462891,6 l -0.867188,0.5 a 3,3 0 0 1 0.300781,0.7226562 L 11.861328,6.9648438 C 11.952594,7.3023511 11.999215,7.6503716 12,8 11.9965,8.3493187 11.94725,8.6966777 11.853516,9.0332031 l -0.96875,-0.2597656 a 3,3 0 0 1 -0.298828,0.71875 l 0.86914,0.5019531 c -0.171676,0.3041744 -0.382454,0.5845554 -0.626953,0.8339844 -0.249429,0.244499 -0.52981,0.455277 -0.8339844,0.626953 l -0.5019531,-0.86914 a 3,3 0 0 1 -0.71875,0.298828 l 0.2597656,0.96875 C 8.6966777,11.94725 8.3493187,11.9965 8,12 7.6506813,11.996498 7.3033223,11.947251 6.9667969,11.853516 l 0.2597656,-0.96875 a 3,3 0 0 1 -0.71875,-0.298828 l -0.5019531,0.86914 C 5.7016854,11.283402 5.421304,11.072624 5.171875,10.828125 4.9273762,10.578696 4.7165976,10.298315 4.5449219,9.9941406 L 5.4140625,9.4921875 a 3,3 0 0 1 -0.2988281,-0.71875 l -0.96875,0.2597656 C 4.0527492,8.6966777 4.0035,8.3493187 4,8 4.0035015,7.6506813 4.052749,7.3033223 4.1464844,6.9667969 l 0.96875,0.2597656 a 3,3 0 0 1 0.2988281,-0.71875 L 4.5449219,6.0058594 C 4.7165976,5.7016854 4.9273762,5.421304 5.171875,5.171875 5.421304,4.9273762 5.7016854,4.7165976 6.0058594,4.5449219 l 0.5019531,0.8691406 a 3,3 0 0 1 0.71875,-0.2988281 L 6.9667969,4.1464844 C 7.3033223,4.0527492 7.6506813,4.0035 8,4 Z" />
  <circle
     style="fill:#e0e0e0;fill-opacity:1;stroke:none;stroke-width:2;stroke-linecap:square;stroke-miterlimit:5;stroke-dasharray:none;stroke-opacity:1;paint-order:markers fill stroke"
     id="path8"
     cx="8"
     cy="8"
     r="2" />
</svg>

<svg xmlns="http://www.w3.org/2000/svg" width="16" height="16"><path d="M8 2a6 6 0 0 0-6 6 6 6 0 0 0 6 6 6 6 0 0 0 6-6 6 6 0 0 0-6-6m0 2a4 4 0 0 1 1.035.139l-.258.965a3 3 0 0 1 .723.3l.5-.867A4 4 0 0 1 11.463 6l-.867.5a3 3 0 0 1 .3.723l.965-.258A4 4 0 0 1 12 8a4 4 0 0 1-.146 1.033l-.97-.26a3 3 0 0 1-.298.72l.87.501a4 4 0 0 1-.628.834 4 4 0 0 1-.834.627l-.502-.87a3 3 0 0 1-.719.3l.26.969A4 4 0 0 1 8 12a4 4 0 0 1-1.033-.146l.26-.97a3 3 0 0 1-.72-.298l-.501.87a4 4 0 0 1-.834-.628 4 4 0 0 1-.627-.834l.87-.502a3 3 0 0 1-.3-.719l-.969.26A4 4 0 0 1 4 8a4 4 0 0 1 .146-1.033l.97.26a3 3 0 0 1 .298-.72l-.87-.501a4 4 0 0 1 .628-.834 4 4 0 0 1 .834-.627l.502.87a3 3 0 0 1 .719-.3l-.26-.969A4 4 0 0 1 8 4" style="fill:#e0e0e0;fill-opacity:1;stroke:none;stroke-width:2;stroke-linecap:square;stroke-miterlimit:5;stroke-dasharray:none;stroke-opacity:1;paint-order:markers fill stroke"/><circle cx="8" cy="8" r="2" style="fill:#e0e0e0;fill-opacity:1;stroke:none;stroke-width:2;stroke-linecap:square;stroke-miterlimit:5;stroke-dasharray:none;stroke-opacity:1;paint-order:markers fill stroke"/></svg>
